X:29
T:Mr Oliver's Brown Shoes
C:Robin Beech
Z:robin.beech@mcgill.ca
R:polka
M:2/4
L:1/8
K:G
|: G (3A/B/c/ dg | ec dB | G (3A/B/c/ dg | fd cA |
G (3A/B/c/ dg | ec dB | A (3B/c/d/ eg | fd cA ::
Gg2e | fd cA | Gg2a | fg ef |
Gg2e | fd cB | A (3B/c/d/ eg | fd cA |
Gg2e | fd cA | Gg2a | fg ef |
Gg2a | fg ef |de cd | Bc AB |]
